X:1
T:Stella (Hemy), 88.88.88
T:Stella (Hemy), 88.88.88
T:Henri Frederick Hemy, 1851
T:Public Domain Courtesy of the Cyber Hymnal™
C:Henri Frederick Hemy, 1851
Z:Public Domain
Z:Courtesy of the Cyber Hymnal™
%%score ( 1 2 ) ( 3 4 )
L:1/8
M:3/4
K:Eb
V:1 treble 
V:2 treble 
V:3 bass 
V:4 bass 
V:1
 [EB]2 | (B2 G2) [DB]2 | [EB]4 [Ee]2 | (e2 d2) [Ec]2 | [EB]4 [EB]2 | ([EB]2 [DA]2) [EG]2 | %6
 (F2 G2) [DA]2 | (G2 B2) [EG]2 | [DF]4 [DB]2 | (B2 G2) [DB]2 | [EB]4 [Ee]2 | (e2 d2) [Ec]2 | %12
 [EB]4 [GB]2 | ([GB]2 [FA]2) [EG]2 | F2 [=EG]2 [FA]2 | [EG]4 [DF]2 | E4 [DF]2 | %17
 ([DF]3 [EG]) [FA]2 | [EG]4 [GB]2 | ([GB]2 [EG]2) [Ec]2 | [EB]4 [Ec]2 | [Ae]4 [Ac]2 | %22
 ([GB]3 [FA]) [EG]2 | A4 [DF]2 | E4 |] %25
V:2
 x2 | E4 x2 | x6 | E4 x2 | x6 | x6 | E4 x2 | E4 x2 | x6 | E4 x2 | x6 | E4 x2 | x6 | x6 | F2 x4 | %15
 x6 | E4 x2 | x6 | x6 | x6 | x6 | x6 | x6 | (C2 F2) x2 | E4 |] %25
V:3
 [E,G,]2 | [E,G,]4 [F,A,]2 | [G,B,]4 [G,B,]2 | (C2 B,2) [A,,A,]2 | [E,G,]4 [G,B,]2 | B,4 [E,B,]2 | %6
 ([A,C]2 [G,B,]2) [F,B,]2 | B,4 [E,B,]2 | [B,,B,]4 [A,B,]2 | [G,B,]4 [F,A,]2 | [E,G,]4 [G,B,]2 | %11
 (C2 B,2) [A,,A,]2 | [E,G,]4 [E,G,]2 | ([E,G,]2 [F,A,]2) [G,B,]2 | ([A,C]2 [G,B,]2) [F,C]2 | %15
 [B,,B,]4 [B,,A,]2 | [E,G,]4 [B,,B,]2 | [B,,B,]4 [D,B,]2 | [E,B,]4 [E,E]2 | (E2 B,2) [E,A,]2 | %20
 [E,G,]4 A,2 | [A,C]4 [A,E]2 | (E3 B,) [E,B,]2 | (A,2 C2) (B,A,) | [E,G,]4 |] %25
V:4
 x2 | x6 | x6 | A,4 x2 | x6 | (G,2 F,2) x2 | x6 | (E,2 G,2) x2 | x6 | x6 | x6 | A,4 x2 | x6 | x6 | %14
 x6 | x6 | x6 | x6 | x6 | E,4 x2 | x4 A,2 | x6 | E,4 x2 | F,4 B,,2 | x4 |] %25

